Papirus/64x64/places/folder-mega.svg

<?xml version="1.0" encoding="UTF-8" standalone="no"?>
<svg xmlns="http://www.w3.org/2000/svg" height="64" viewBox="0 0 64 64" width="64" version="1.1">
 <path d="m 57,53.5011 0,-26.989543 c 0,-1.384444 -1.1235,-2.651935 -2.5,-2.498995 l -20,0 -4.5,4.09e-4 -20.5,0 C 7,24.012971 7,26.40791 7,26.40791 L 7,53.501 C 7,54.88545 8.115,56 9.5,56 l 45,0 c 1.385,0 2.5,-1.11455 2.5,-2.499 z" style="opacity:0.2;fill:#000000;fill-opacity:1"/>
 <path style="fill:#4877b1;fill-opacity:1" d="M 7,47.50009 7,12.512516 C 7,11.128033 8.1235,9.847102 9.5,10 L 26,10 c 3,0 3,1.509999 3,5 l 25.628,0 c 0,0 2.3718,0.01159 2.3718,2.510755 l 0,29.989635 c 0,1.38448 -1.115,2.49917 -2.5,2.49917 l -44.999,0 c -1.385,0 -2.5,-1.11459 -2.5,-2.49917 z"/>
 <path d="m 57,51.5011 0,-26.989543 c 0,-1.384444 -1.1235,-2.651935 -2.5,-2.498995 l -20,0 -4.5,4.09e-4 -20.5,0 C 7,22.012971 7,24.40791 7,24.40791 L 7,51.501 C 7,52.88545 8.115,54 9.5,54 l 45,0 c 1.385,0 2.5,-1.11455 2.5,-2.499 z" style="opacity:0.2;fill:#000000;fill-opacity:1"/>
 <rect rx="2.444" ry="2.5" y="18" x="10" height="20" width="44" style="opacity:1;fill:#dcdcdc;fill-opacity:1;"/>
 <path style="fill:#5294e2;fill-opacity:1" d="m 57,52.501 0,-26.989543 c 0,-1.384444 -1.1235,-2.651935 -2.5,-2.498995 l -20,0 -4.5,4.09e-4 -20.5,0 C 7,23.012871 7,25.40781 7,25.40781 L 7,52.5009 c 0,1.38445 1.115,2.499 2.5,2.499 l 45,0 c 1.385,0 2.5,-1.11455 2.5,-2.499 z"/>
 <path style="opacity:0.1;fill:#ffffff;fill-opacity:1" d="M 9.5,10 C 8.1235,9.847102 7,11.127236 7,12.511719 l 0,1.001953 C 7,12.129189 8.1235,10.847102 9.5,11 L 26,11 c 3,0 3,1.509999 3,5 l 25.628906,0 C 54.628906,16 57,16.01255 57,18.511719 l 0,-1 C 57,15.012554 54.628906,15 54.628906,15 L 29,15 c 0,-3.490001 0,-5 -3,-5 L 9.5,10 Z"/>
 <path style="opacity:0.65" d="m 32,26.9999 a 12,12 0 0 0 -12,12 12,12 0 0 0 12,12 12,12 0 0 0 12,-12 12,12 0 0 0 -12,-12 z m -6,6 4,0 0,0.0078 2,1.9922 2,-2 4,0 0,12 -4,0 0,-6 -2,2 -2,-2 0,6 -4,0 0,-12 z"/>
</svg>

<svg xmlns="http://www.w3.org/2000/svg" width="64" height="64" version="1.1">
 <rect style="opacity:0.2" width="50" height="32" x="7" y="24" rx="2.5" ry="2.5"/>
 <path style="fill:#4877b1" d="M 7,44.5 C 7,45.885 8.115,47 9.5,47 H 54.5 C 55.885,47 57,45.885 57,44.5 V 17.5 C 57,16.115 55.885,15 54.5,15 H 29 V 12.5 C 29,11.115 27.885,10 26.5,10 H 9.5 C 8.115,10 7,11.115 7,12.5"/>
 <rect style="opacity:0.2" width="50" height="32" x="7" y="22" rx="2.5" ry="2.5"/>
 <rect style="fill:#dcdcdc" width="44" height="20" x="10" y="18" rx="2.5" ry="2.5"/>
 <rect style="fill:#5294e2" width="50" height="32" x="7" y="23" rx="2.5" ry="2.5"/>
 <path style="opacity:0.1;fill:#ffffff" d="M 9.5,10 C 8.115,10 7,11.115 7,12.5 V 13.5 C 7,12.115 8.115,11 9.5,11 H 26.5 C 27.885,11 29,12.115 29,13.5 V 12.5 C 29,11.115 27.885,10 26.5,10 Z M 29,15 V 16 H 54.5 C 55.89,16 57,17.115 57,18.5 V 17.5 C 57,16.115 55.89,15 54.5,15 Z"/>
 <path style="opacity:0.65" d="M 32,27 C 25.373,27 20,32.373 20,39 20,45.627 25.373,51 32,51 38.627,51 44,45.627 44,39 44,32.373 38.627,27 32,27 Z M 26,33 H 30 V 33 L 32,35 34,33 H 38 V 45 H 34 V 39 L 32,41 30,39 V 45 H 26 Z"/>
</svg>
